X: 1
T: Twin Sisters (????ty Dance)
R: jig
B: Maud Karpeles Manuscript Collection (MK/1/1/4632E) 1929 p.5131
N: "Played by W.??lon Hamilton at East Grange, Me. Aug 2nd / 29"
Z: 2013 John Chambers <jc:trillian.mit.edu>
N: The 2nd part has initial repeat, but no final repeat; fixed.
M: 6/8
L: 1/8
K: A
e |\
ecc cBA | BAB cAF | EAA Ace | fed B2e |\
ecc cBA | BAB cAF | EAA AAc | BAB A2 :|
|: A |\
Ace a2e | fec cBA | Ace a2e | fec B2A |\
Ace a2e | fec Bce | faf ecA | BAB A3 :|
